images/roadmap/arrow2.svg

<svg width="32" height="32" viewBox="0 0 32 32" fill="none" xmlns="http://www.w3.org/2000/svg">
<rect width="32" height="32" transform="matrix(-1 0 0 1 32 0)" fill="white"/>
<path fill-rule="evenodd" clip-rule="evenodd" d="M17.2768 9.53302C17.2768 8.85168 16.5392 8.42584 15.9491 8.76651L5.32807 14.8986C4.73801 15.2393 4.73801 16.0909 5.32807 16.4316L15.9491 22.5637C16.5392 22.9043 17.2768 22.4785 17.2768 21.7972V16.9927H26.0934C26.5822 16.9927 26.9785 16.5965 26.9785 16.1076V15.1883C26.9785 14.7184 26.5976 14.3375 26.1276 14.3375H17.2768V9.53302Z" fill="#3A49CF"/>
</svg>

<svg xmlns="http://www.w3.org/2000/svg" width="32" height="32" fill="none" viewBox="0 0 32 32"><path fill="#3A49CF" fill-rule="evenodd" d="M17.277 9.533a.885.885 0 0 0-1.328-.766L5.33 14.899a.885.885 0 0 0 0 1.533l10.62 6.132a.885.885 0 0 0 1.328-.767v-4.804h8.816a.885.885 0 0 0 .886-.885v-.92a.85.85 0 0 0-.851-.85h-8.851V9.533Z" clip-rule="evenodd"/></svg>
